rospo-dark/16x16/actions/edit-table-delete-row.svg

<svg height="16" viewBox="0 0 16 16" width="16" xmlns="http://www.w3.org/2000/svg"><path d="m1 1v14h14v-14zm2 2h2v2h-2zm4 0h2v2h-2zm4 0h2v2h-2zm-7.28125 3h2.5625l4 4h-2.5625zm4 0h2.5625l2.71875 2.71875v1.28125h-1.28125zm4 0h1.28125v1.28125zm-8.71875.71875 3.28125 3.28125h-3.28125zm0 4.28125h2v2h-2zm4 0h2v2h-2zm4 0h2v2h-2z" fill="#d3dae3"/></svg>

<?xml version="1.0" encoding="UTF-8" standalone="no"?>
<svg xmlns="http://www.w3.org/2000/svg" width="22" height="22" viewBox="0 0 22 22">
 <defs>
  <style type="text/css" id="current-color-scheme">
   .ColorScheme-Text { color:#d3dae3; } .ColorScheme-Highlight { color:#5294e2; }
  </style>
 </defs>
 <path style="fill:currentColor;opacity:1" class="ColorScheme-Text" transform="translate(3 3)" d="M 1 1 L 1 15 L 15 15 L 15 1 L 1 1 z M 3 3 L 5 3 L 5 5 L 3 5 L 3 3 z M 7 3 L 9 3 L 9 5 L 7 5 L 7 3 z M 11 3 L 13 3 L 13 5 L 11 5 L 11 3 z M 3.71875 6 L 6.28125 6 L 10.28125 10 L 7.71875 10 L 3.71875 6 z M 7.71875 6 L 10.28125 6 L 13 8.71875 L 13 10 L 11.71875 10 L 7.71875 6 z M 11.71875 6 L 13 6 L 13 7.28125 L 11.71875 6 z M 3 6.71875 L 6.28125 10 L 3 10 L 3 6.71875 z M 3 11 L 5 11 L 5 13 L 3 13 L 3 11 z M 7 11 L 9 11 L 9 13 L 7 13 L 7 11 z M 11 11 L 13 11 L 13 13 L 11 13 L 11 11 z"/>
</svg>
